dist/img/svg/icon-twitter.svg

<svg width="16" height="13" viewBox="0 0 16 13" fill="none" xmlns="http://www.w3.org/2000/svg">
<path d="M14.8241 1.84471C14.4742 1.94291 14.2012 1.92888 14.2012 1.92888L14.2152 1.86575C14.5372 1.60623 15.3561 0.813636 15.4611 0.441889C15.5101 0.280564 15.4541 0.224452 15.4541 0.217438L14.4112 0.652312L13.5433 1.0451C12.9414 0.406819 12.0315 0 11.0166 0C9.20385 0 7.73403 1.28358 7.73403 2.86877C7.73403 3.15635 7.77603 3.68942 7.86702 3.95596C7.86702 4.04012 7.86702 3.87179 7.86702 3.95596C6.69816 3.92088 5.20735 3.44393 3.87752 2.77057C1.25284 1.43789 1.08486 0.51203 1.08486 0.51203C0.671916 0.953919 0.461942 2.40584 0.874891 3.54212C1.14086 4.27159 2.06474 4.9239 2.06474 4.9239C2.06474 4.9239 1.65179 4.93092 1.22485 4.78362C0.790901 4.63632 0.629922 4.49604 0.629922 4.49604C0.370954 5.1203 0.888889 6.24255 1.77778 7.04216C2.29571 7.51211 3.24059 7.8067 3.24059 7.8067L1.76378 7.84878C1.67979 9.28667 4.7734 10.1424 4.7734 10.1424C3.86352 10.8438 2.81365 11.2647 1.68679 11.2647C1.09886 11.2647 0.538933 11.1735 0 11.0192C1.49081 12.2466 3.40857 13.1023 5.48731 12.9901C11.0166 12.7025 14.1312 7.93997 14.2852 3.26156L14.2922 3.26857C14.2922 3.26857 14.5512 3.14232 15.1041 2.58119C15.657 2.02708 16 1.37476 16 1.37476C16 1.37476 15.1741 1.74651 14.8241 1.84471Z" fill="#3FA6DB"/>
</svg>

<svg width="16" height="13" viewBox="0 0 16 13" fill="none" xmlns="http://www.w3.org/2000/svg"><path d="M14.824 1.845c-.35.098-.623.084-.623.084l.014-.063c.322-.26 1.141-1.052 1.246-1.424.05-.161-.007-.218-.007-.225l-1.043.435-.868.393C12.941.407 12.032 0 11.017 0 9.204 0 7.734 1.284 7.734 2.869c0 .287.042.82.133 1.087 0 .084 0-.084 0 0-1.169-.035-2.66-.512-3.99-1.185C1.254 1.438 1.086.512 1.086.512.672.954.462 2.406.875 3.542c.266.73 1.19 1.382 1.19 1.382s-.413.007-.84-.14C.79 4.636.63 4.496.63 4.496c-.26.624.259 1.747 1.148 2.546.518.47 1.463.765 1.463.765l-1.477.042c-.084 1.438 3.01 2.293 3.01 2.293-.91.702-1.96 1.123-3.087 1.123A6.092 6.092 0 010 11.019c1.49 1.228 3.409 2.083 5.487 1.971 5.53-.287 8.644-5.05 8.798-9.728l.007.007s.26-.127.812-.688c.553-.554.896-1.206.896-1.206s-.826.372-1.176.47z" fill="#3FA6DB"/></svg>
